svg/litecoin.svg

<svg xmlns="http://www.w3.org/2000/svg" viewBox="0 0 24 24"><path d="m12.55 15.92.61-2.14 1.65-.59 1.44-5.56-1.69.68L16.25 2H8l-2.62 9.77-1.66.57-1.5 5.57L4 17.27 2.66 22h17.5l1.62-6.08zM19.39 21H4l1.46-5.35-1.74.65.86-3.19 1.66-.57L8.74 3H15l-1.87 7 1.7-.7-.83 3.12-1.67.58-1.11 3.91h9.28z"/></svg>

<?xml version="1.0" encoding="UTF-8"?><!DOCTYPE svg PUBLIC "-//W3C//DTD SVG 1.1//EN" "http://www.w3.org/Graphics/SVG/1.1/DTD/svg11.dtd"><svg xmlns="http://www.w3.org/2000/svg" xmlns:xlink="http://www.w3.org/1999/xlink" version="1.1" id="mdi-litecoin" width="24" height="24" viewBox="0 0 24 24"><path d="M12.55,15.92L13.16,13.78L14.81,13.19L16.25,7.63L14.56,8.31L16.25,2H8L5.38,11.77L3.72,12.34L2.22,17.91L4,17.27L2.66,22H20.16L21.78,15.92H12.55M19.39,21H4L5.46,15.65L3.72,16.3L4.58,13.11L6.24,12.54L8.74,3H15L13.13,10L14.83,9.3L14,12.42L12.33,13L11.22,16.91H20.5L19.39,21Z" /></svg>
